X:225
T:score3
L:1/16
Q:1/4=96
M:1/8
I:linebreak $
K:Amin
 (e^d |[M:3/8] e^d eB =dc | A2) z (C EA | B2) z (E ^GB | c2) z (E e^d |$ e^d eB =dc | A2) z (C EA | %7
 B2) z (E cB |[M:2/8] A4) |] %9
